src/assets/icons/th-large.svg

<svg width="14" height="14" viewBox="0 0 14 14" fill="none" xmlns="http://www.w3.org/2000/svg">
<g id="th-large">
<g clip-path="url(#clip0_156_4619)">
<path id="Vector" fill-rule="evenodd" clip-rule="evenodd" d="M1.27273 1.90909C1.27273 1.55764 1.55764 1.27273 1.90909 1.27273H4.45455C4.806 1.27273 5.09091 1.55764 5.09091 1.90909V4.45455C5.09091 4.806 4.806 5.09091 4.45455 5.09091H1.90909C1.55764 5.09091 1.27273 4.806 1.27273 4.45455V1.90909ZM1.90909 0C0.854729 0 0 0.854729 0 1.90909V4.45455C0 5.50891 0.854729 6.36364 1.90909 6.36364H4.45455C5.50891 6.36364 6.36364 5.50891 6.36364 4.45455V1.90909C6.36364 0.854729 5.50891 0 4.45455 0H1.90909ZM1.27273 9.54545C1.27273 9.194 1.55764 8.90909 1.90909 8.90909H4.45455C4.806 8.90909 5.09091 9.194 5.09091 9.54545V12.0909C5.09091 12.4424 4.806 12.7273 4.45455 12.7273H1.90909C1.55764 12.7273 1.27273 12.4424 1.27273 12.0909V9.54545ZM1.90909 7.63636C0.854729 7.63636 0 8.49109 0 9.54545V12.0909C0 13.1453 0.854729 14 1.90909 14H4.45455C5.50891 14 6.36364 13.1453 6.36364 12.0909V9.54545C6.36364 8.49109 5.50891 7.63636 4.45455 7.63636H1.90909ZM9.54545 1.27273C9.194 1.27273 8.90909 1.55764 8.90909 1.90909V4.45455C8.90909 4.806 9.194 5.09091 9.54545 5.09091H12.0909C12.4424 5.09091 12.7273 4.806 12.7273 4.45455V1.90909C12.7273 1.55764 12.4424 1.27273 12.0909 1.27273H9.54545ZM7.63636 1.90909C7.63636 0.854729 8.49109 0 9.54545 0H12.0909C13.1453 0 14 0.854729 14 1.90909V4.45455C14 5.50891 13.1453 6.36364 12.0909 6.36364H9.54545C8.49109 6.36364 7.63636 5.50891 7.63636 4.45455V1.90909ZM8.90909 9.54545C8.90909 9.194 9.194 8.90909 9.54545 8.90909H12.0909C12.4424 8.90909 12.7273 9.194 12.7273 9.54545V12.0909C12.7273 12.4424 12.4424 12.7273 12.0909 12.7273H9.54545C9.194 12.7273 8.90909 12.4424 8.90909 12.0909V9.54545ZM9.54545 7.63636C8.49109 7.63636 7.63636 8.49109 7.63636 9.54545V12.0909C7.63636 13.1453 8.49109 14 9.54545 14H12.0909C13.1453 14 14 13.1453 14 12.0909V9.54545C14 8.49109 13.1453 7.63636 12.0909 7.63636H9.54545Z" fill="black"/>
</g>
</g>
<defs>
<clipPath id="clip0_156_4619">
<rect width="14" height="14" fill="white"/>
</clipPath>
</defs>
</svg>

<svg xmlns="http://www.w3.org/2000/svg" fill="none" viewBox="0 0 14 14"><g clip-path="url(#a)"><path fill="#000" fill-rule="evenodd" d="M1.273 1.91c0-.352.285-.637.636-.637h2.546c.351 0 .636.285.636.636v2.546a.636.636 0 0 1-.636.636H1.909a.636.636 0 0 1-.636-.636zM1.909 0A1.91 1.91 0 0 0 0 1.91v2.545a1.91 1.91 0 0 0 1.91 1.909h2.545a1.91 1.91 0 0 0 1.909-1.91V1.91A1.91 1.91 0 0 0 4.454 0zm-.636 9.545c0-.351.285-.636.636-.636h2.546c.351 0 .636.285.636.636v2.546a.636.636 0 0 1-.636.636H1.909a.636.636 0 0 1-.636-.636zm.636-1.909A1.91 1.91 0 0 0 0 9.546v2.545A1.91 1.91 0 0 0 1.91 14h2.545a1.91 1.91 0 0 0 1.909-1.91V9.546a1.91 1.91 0 0 0-1.91-1.909zm7.636-6.363a.636.636 0 0 0-.636.636v2.546c0 .351.285.636.636.636h2.546a.636.636 0 0 0 .636-.636V1.909a.636.636 0 0 0-.636-.636zm-1.909.636A1.91 1.91 0 0 1 9.546 0h2.545A1.91 1.91 0 0 1 14 1.91v2.545a1.91 1.91 0 0 1-1.91 1.909H9.546a1.91 1.91 0 0 1-1.909-1.91zM8.91 9.545c0-.351.285-.636.636-.636h2.546c.351 0 .636.285.636.636v2.546a.636.636 0 0 1-.636.636H9.545a.636.636 0 0 1-.636-.636zm.636-1.909a1.91 1.91 0 0 0-1.909 1.91v2.545A1.91 1.91 0 0 0 9.546 14h2.545A1.91 1.91 0 0 0 14 12.09V9.546a1.91 1.91 0 0 0-1.91-1.909z" clip-rule="evenodd"/></g><defs><clipPath id="a"><path fill="#fff" d="M0 0h14v14H0z"/></clipPath></defs></svg>
